!!! OTL: Berkowitz616
!!! Chapter: 1
!!! Section: V
!!! Page: 157
!!! Mode: 
!!! Encoder: AR
**kern
*staff1
=1-
!!pagebreak:original
*clefG2
*k[]
*C:
*M4/4
2e/
4.cc\
8b\
=2
1d
=3
4e-/
4a/
4.g/
8b-\
=4
1d-
=5
4d-/
4f/
4.A-/
8G-/
=6
4A-/
4f/
4.d-/
8d-/
=7
2b-\
4.g/
8an/
=8
!!linebreak:original
1e-
=9
2d/
4.b\
8cc\
=10
1e
=11
4r
4c/
4B/
4d/
=12
!!linebreak:original
4e-/
2a/
4r
=13
2a/
4.g/
8b-\
=14
1dd-
=15
2f/
2a-/
=16
1g-
==
*-
